X:1
T:Dolce è la pace
T:Giammateo Asola
T:Source : Madrigali a due voci---Venetia---G.Vincenti---1587. Editor : André Vierendeels (20/04/17).
T:Notes : Original clefs : C1, (Fuga di mezo tempo, una ottava piu bassa) Original note values have been halved Editorial accidentals above the staff
T:Dolce è la pace
T:©
T:©
C:Giammateo Asola
Z:©
%%score [ 1 2 ]
L:1/8
Q:1/4=120
M:2/2
K:F
V:1 treble nm="Soprano" snm="S"
V:2 treble-8 nm="Tenor" snm="T"
V:1
 G4 d2 d2 | A3 B c2 c2 | G3 A Bc d2- | dc B2 A2 d2 | c2 A2 c3 c | G2 A2 B2 AG | F2 G2 A2 G2 | %7
w: Dolc' è la|pa- * * ce|mi- * * * *|* * * a, dolc'|è l'a- mor che|mi si- le- * *|* ga'e strin- ge,|
 z2 d2 c2 A2 | c2 c2 G3 A | B4 F4 | A3 A c4 | G3 G d4 | A6 GF | E2 F2 G2 FE | D4 d2 dd | %15
w: ch'a piu po-|ter mi strin- *|* ge,|a gui- dar,|a gui- dar|dol- * *|* ce- men- * *|te, a- pri la|
 B2 A2 z2 c2 | AAGG c2 d2 | z2 A2 B2 c2 | d2 cB A3 G | F2 E2 D2 ^C2 | D2 z A2 A c2 | A2 G2 F2 G2 | %22
w: vi- a, a-|pri si- gnor le por- te,|d'u- scir di|que- * * * *|* sta mor- *|te, ch'io mi sen-|to lan- gui- re,|
 z2 B2 A2 D2 | E2 F2 G2 A2 | GG F2 G2 z A | B2 c2 d2 c2 | B2 A2 GG F2 | G2 z A B2 A2 | GG c4 =BA | %29
w: d'ar- dor per|es- ser te- co|di mo- ri- re, d'ar-|dor per es- ser|te- co di mo- ri-|re, di mo- ri|re, di mo- ri- *|
 =B8 |] %30
w: re.|
V:2
 z4 G4 | d2 d2 A3 B | c2 c2 G3 A | Bc d3 c B2 | A2 d2 c2 A2 | c3 c G2 A2 | B2 AG F2 G2 | %7
w: Dolc'|è la pa- *|* de mi- *||a, dolc' è l'a-|mor che si- le-|* * * * ga'e|
 A2 G2 z2 d2 | c2 A2 c2 c2 | G3 A B4 | F4 A3 A | c4 G3 G | d4 A4- | A2 GF E2 F2 | G2 FE D4 | %15
w: strin- ge, ch'a|piu po- ter mi|strin- * *|ge, a gui-|dar, a gui-|dar dol-|* * * * ce-|men- * * te,|
 d2 dd B2 A2 | z2 c2 AAGG | c2 d2 z2 A2 | B2 c2 d2 cB | A3 G F2 E2 | D2 ^C2 D2 z A- | %21
w: a- pri la vi- a,|a- pri si- gnor le|por- te, d'u-|scir di que- * *|* * * sta|mor- * te, ch'io|
"^-natural" AA c2 A2 G2 | F2 G2 z2 B2 | A2 D2 E2 F2 | G2 A2 GG F2 | G2 z A B2 c2 | d2 c2 B2 A2 | %27
w: _ mi sen- to lan-|gui- re, d'ar-|dor per es- ser|te- co di mo- ri-|re, d'ar- dor per|es- ser te- co|
 GG F2 G2 z A | G8 | G8 |] %30
w: di mo- ri- re, mo-|ri-|re.|

